icons/dark/gif.svg

<svg width="16" height="16" viewBox="0 0 16 16" fill="none" xmlns="http://www.w3.org/2000/svg">
<path fill-rule="evenodd" clip-rule="evenodd" d="M4 1L3 2V14L4 15H13L14 14V5L13.7071 4.29289L10.7071 1.29289L10 1H4ZM4 14V2H9V6H13V14H4ZM13 5L10 2V5H13Z" fill="#C5C5C5"/>
<path d="M8.125 8H8.875V11H8.125V8ZM6.87625 8H5.62375C5.32375 8 5.125 8.25125 5.125 8.49875V10.5013C5.125 10.7488 5.32375 11 5.62375 11H6.87625C7.17625 11 7.375 10.7488 7.375 10.5013V9.5H6.625V10.25H5.875V8.75H7.375V8.49875C7.375 8.25125 7.17625 8 6.87625 8ZM11.875 8.75V8H9.625V11H10.375V10.25H11.3125V9.5H10.375V8.75H11.875Z" fill="#C5C5C5"/>
</svg>

<svg xmlns="http://www.w3.org/2000/svg" width="16" height="16" fill="#c5c5c5" xmlns:v="https://vecta.io/nano"><path fill-rule="evenodd" d="M4 1L3 2v12l1 1h9l1-1V5l-.293-.707-3-3L10 1H4zm0 13V2h5v4h4v8H4zm9-9l-3-3v3h3z"/><path d="M8.125 8h.75v3h-.75V8zM6.876 8H5.624a.5.5 0 0 0-.499.499v2.003a.5.5 0 0 0 .499.499h1.252a.5.5 0 0 0 .499-.499V9.5h-.75v.75h-.75v-1.5h1.5v-.251A.5.5 0 0 0 6.876 8zm4.999.75V8h-2.25v3h.75v-.75h.938V9.5h-.937v-.75h1.5z"/></svg>
